X: 40
%%staffwidth     14.50cm
T: Solomon Levi #1
I: Solomon LeviS-SGsquare
C: S-S
M: 6/8
Z: Transcribed to abc by Mary Lou Knack
R: square
K: G
z2z2zd| "G"Hdzd dzd| dzd dzd| "C"eze eze| e4 ze|
        "D7"fzf fzf| fzf fze| "G"ezd dz^c| d4 zd|
        "G"dzd dzd| dz d2 zd| "C"eze eze| e4 ze|
        "D7"fzf fzf| fzf fze| dzd ezf| "G"g4 "fine"z2 |]
|:\
"B7"b3 fga| "Em"g3 e3| "B7"bc'b agf| "Em"e4 z2|
"A7"a3 efg| "D"f3 d3| "A7"aba gfe| "D"ded cBA:|
%%text arr. Tony Saletan
%%text 9/1/98
